X: 27
T: Marie Louise engelsk
O: 18th C.
S: Br\odrene Bast
N: Br\odrene Christian Frederik Bast og Paul Danchel Bast blev f\odt i 1740erne i Horslunde p\aa Vestlolland.
F: http://www.folketshus.dk/cgi-bin/visnode.cgitr-marielo
D: LP: Bidt a' Bast (Fanfare Records 848 057-1 1990)
R: jig
Z: 2006 John Chambers <jc@trillian.mit.edu>
M: 6/8
L: 1/8
K: Bb
|: "Bb"B3 dcB | "Cm"g2e     d2c | "Bb"B3      dcB | "F"c2F    c2F \
|  "Bb"B3 dcB | "Cm"g2e     d2c | "Bb"def "Cm"cde | "F"c3 "Bb"B3 :|
|: "Bb"B3 dcB | "Eb"b2B "Bb"b2B | "Bb"dcB "Gm"dcB | "F"c2F    c2F \
|  "Gm"B3 dcB | "Cm"g2e     d2c | "Bb"fbf "Gm"dBd | "F"c3 "Bb"B3 :|
